icons/desktop/16/svg/folder-16.svg

<svg width="16" height="16" viewBox="0 0 16 16" fill="none" xmlns="http://www.w3.org/2000/svg">
<path fill-rule="evenodd" clip-rule="evenodd" d="M5.30859 1C6.08856 1 6.83157 1.33145 7.35254 1.91016L8.33594 3.00195C9.70047 3.01047 11.1874 3.07061 12.7773 3.21289L13.5225 3.28516L13.7812 3.32422C15.0532 3.57865 16 4.69768 16 6.02441V11.9736C16 13.3731 14.9513 14.5644 13.5459 14.7109C11.8584 14.8864 10.0011 14.999 8 14.999C6.33683 14.999 4.48373 14.9218 2.47754 14.7139C1.07695 14.5685 0 13.3884 0 11.9736V3.75C0 2.23079 1.23079 1 2.75 1H5.30859ZM2.75 2.5C2.05921 2.5 1.5 3.05921 1.5 3.75V11.9736C1.5 12.6128 1.98945 13.155 2.63281 13.2217C4.58262 13.4238 6.38317 13.499 8 13.499C9.94488 13.499 11.7501 13.3893 13.3906 13.2188C14.0189 13.1531 14.5 12.6179 14.5 11.9736V6.02441C14.5 5.38572 14.011 4.84412 13.3672 4.77734C11.4176 4.5753 9.6167 4.5 8 4.5C7.78747 4.5 7.58461 4.40988 7.44238 4.25195L6.2373 2.91406C6.00028 2.65077 5.66263 2.5 5.30859 2.5H2.75Z" fill="black"/>
</svg>

<!-- This Source Code Form is subject to the terms of the Mozilla Public
   - License, v. 2.0. If a copy of the MPL was not distributed with this
   - file, You can obtain one at http://mozilla.org/MPL/2.0/. -->
<svg xmlns="http://www.w3.org/2000/svg" width="16" height="16" fill="context-fill" fill-opacity="context-fill-opacity" viewBox="0 0 16 16">
    <path fill-rule="evenodd" d="M5.309 1c.78 0 1.523.331 2.044.91l.983 1.092c1.364.008 2.851.069 4.441.21l.746.073.258.04A2.76 2.76 0 0 1 16 6.024v5.949c0 1.4-1.049 2.59-2.454 2.737a53.6 53.6 0 0 1-11.068.003A2.76 2.76 0 0 1 0 11.974V3.75A2.75 2.75 0 0 1 2.75 1zM2.75 2.5c-.69 0-1.25.56-1.25 1.25v8.224c0 .639.49 1.181 1.133 1.248a52 52 0 0 0 10.758-.003c.628-.066 1.109-.601 1.109-1.245v-5.95a1.26 1.26 0 0 0-1.133-1.247A52 52 0 0 0 8 4.5a.75.75 0 0 1-.558-.248L6.237 2.914A1.25 1.25 0 0 0 5.31 2.5z" clip-rule="evenodd" />
</svg>
